X:179
T:The Scholar                                                                                       
N:From Richard Robinson's Tunebook                                                                  
M:4/4                                                                                               
L:1/8                                                                                               
K:DMix                                                                                              
A|dfaf gfeg|fdAG FGAc|BGFG EFGg|fde^c dcBA|                                                         
dfaf gfeg|fdAG FGAc|BGFG EFGg|1 fde^c d2 A:|2 fde^c defg||                                          
a2af dfaf|dfaf bagf|g2ge cege|cege agfg|                                                            
a2af dfaf|dfaf bagf|g2gf gbag|1 fde^c defg |2 fde^c d2 A||
